X:1
T:[ID 4-50r]
T:[ID 4-50r]
T:Bezeichnung standardisiert: Anglaise Angeloise
T:Urheber unbekannt Datum in der hier transkribierten schriftlichen Quelle: 1767
C:Urheber unbekannt
C:Datum in der hier transkribierten schriftlichen Quelle: 1767
L:1/8
M:2/4
K:D
V:1 treble 
V:1
"^[sic]" d3 A/B/c/ | dd d2 | efga | gfed |"^[sic]" d3 A/B/c/ | dd d2 | ef ^g2 | aa a2 :: %8
 [Af]2 [Af]2 | [Ae]3 f | gedc | dfdA | [Af]2 [Af]2 | [Ae]3 f | gedc | d2 z2 :| !fermata!a3 f | %17
 d2 d2 | edef | d2 d2 | a3 f | d2 d2 | edef | d2 z2!D.C.! :| %24

